svgs/scoop.svg

<svg width="192" height="192" viewBox="0 0 192 192" fill="none" xmlns="http://www.w3.org/2000/svg">
<path d="M80.6228 86.832C90.5126 86.832 100.401 86.832 110.289 86.832" stroke="black" stroke-width="12" stroke-linecap="round"/>
<path d="M80.6228 119.832C90.5126 119.832 100.401 119.832 110.289 119.832" stroke="black" stroke-width="12" stroke-linecap="round"/>
<path d="M95.6875 35.9673H95.1152C70.5825 35.9673 50.6948 55.855 50.6948 80.3877V125.58C50.6948 150.112 70.5825 170 95.1152 170H95.6875C120.22 170 140.108 150.112 140.108 125.58V80.3877C140.108 55.855 120.22 35.9673 95.6875 35.9673Z" stroke="black" stroke-width="12" stroke-linecap="round" stroke-linejoin="round"/>
<path d="M144.707 71.2669C149.085 71.2669 153.463 71.2669 157.84 71.2669" stroke="black" stroke-width="12" stroke-linecap="round"/>
<path d="M144.707 102.974C149.085 102.974 153.463 102.974 157.84 102.974" stroke="black" stroke-width="12" stroke-linecap="round"/>
<path d="M144.707 134.942C149.085 134.942 153.463 134.942 157.84 134.942" stroke="black" stroke-width="12" stroke-linecap="round"/>
<path d="M35 71.2669C39.3785 71.2669 43.7564 71.2669 48.1338 71.2669" stroke="black" stroke-width="12" stroke-linecap="round"/>
<path d="M35 102.974C39.3785 102.974 43.7564 102.974 48.1338 102.974" stroke="black" stroke-width="12" stroke-linecap="round"/>
<path d="M35 134.942C39.3785 134.942 43.7564 134.942 48.1338 134.942" stroke="black" stroke-width="12" stroke-linecap="round"/>
<path d="M69.3162 22.116C73.5334 26.3332 77.7498 30.5497 81.9655 34.7654" stroke="black" stroke-width="12" stroke-linecap="round"/>
<path d="M123.531 22C119.211 26.3203 114.89 30.6406 110.57 34.961" stroke="black" stroke-width="12" stroke-linecap="round"/>
</svg>

<svg width="192" height="192" viewBox="0 0 192 192" fill="none" xmlns="http://www.w3.org/2000/svg"><path d="M80.623 86.832h29.666M80.623 119.832h29.666" stroke="#000" stroke-width="12" stroke-linecap="round"/><path d="M95.688 35.967h-.573c-24.532 0-44.42 19.888-44.42 44.42v45.193c0 24.532 19.887 44.42 44.42 44.42h.573c24.532 0 44.42-19.888 44.42-44.42V80.388c0-24.533-19.888-44.42-44.42-44.42Z" stroke="#000" stroke-width="12" stroke-linecap="round" stroke-linejoin="round"/><path d="M144.707 71.267h13.133M144.707 102.974h13.133M144.707 134.942h13.133M35 71.267h13.134M35 102.974h13.134M35 134.942h13.134M69.316 22.116l12.65 12.65M123.531 22 110.57 34.961" stroke="#000" stroke-width="12" stroke-linecap="round"/></svg>
